packages/gestalt/src/icons/question-mark.svg

<svg width="24" height="24" xmlns="http://www.w3.org/2000/svg"><path fill="#aeaeae" d="M14.34 21.2c0 1.57-1.19 2.8-2.78 2.8-1.58 0-2.77-1.23-2.77-2.8 0-1.57 1.19-2.8 2.77-2.8 1.59 0 2.78 1.23 2.78 2.8m-2.53-10.88c1.41-1.23 3.3-2.05 3.3-3.87 0-1.45-1.24-2.36-2.95-2.36-2.12 0-3.52 1.48-3.55 3.43H3.75C3.88 3.3 6.96 0 12.34 0c4.86 0 7.91 2.52 7.91 6.32 0 2.36-1.09 3.81-2.3 4.78-1.68 1.33-2.84 1.89-3.49 2.61-.5.57-.62 1.04-.65 1.95H9.45c0-2.64.65-3.9 2.36-5.34"/></svg>

<svg width="24" height="24" viewBox="0 0 24 24" xmlns="http://www.w3.org/2000/svg"><path fill="#aeaeae" d="M14.34,21.20 C14.34,22.77 13.15,24.00 11.56,24.00 C9.98,24.00 8.79,22.77 8.79,21.20 C8.79,19.63 9.98,18.40 11.56,18.40 C13.15,18.40 14.34,19.63 14.34,21.20 M11.81,10.32 C13.22,9.09 15.11,8.27 15.11,6.45 C15.11,5.00 13.87,4.09 12.16,4.09 C10.04,4.09 8.64,5.57 8.61,7.52 L3.75,7.52 C3.88,3.30 6.96,0.00 12.34,0.00 C17.20,0.00 20.25,2.52 20.25,6.32 C20.25,8.68 19.16,10.13 17.95,11.10 C16.27,12.43 15.11,12.99 14.46,13.71 C13.96,14.28 13.84,14.75 13.81,15.66 L9.45,15.66 C9.45,13.02 10.10,11.76 11.81,10.32"/></svg>
